src/pictures/icon-md.svg

<svg xmlns="http://www.w3.org/2000/svg" viewBox="0 0 121.6 130.4" enable-background="new 0 0 121.6 130.4"><style type="text/css">.st0{fill:#657EE4;}</style><path id="Icon_awesome-mastodon" class="st0" d="M121.6 42.8c0-28.3-18.5-36.6-18.5-36.6-18.2-8.3-66.5-8.2-84.5 0 0 0-18.5 8.3-18.5 36.6 0 33.7-1.9 75.5 30.7 84.1 9.8 2.7 19.9 3.8 30.1 3.3 8-.2 15.8-2 23.1-5.3l-.5-10.7c-7.3 2.1-14.9 3.1-22.4 2.9-11.8-.4-24.1-1.3-26.1-15.7-.2-1.3-.3-2.7-.3-4 17.1 3.9 34.7 4.6 52 2 16.3-2 30.6-12 32.3-21.2 1.8-11.7 2.7-23.5 2.6-35.4zm-21.8 36.4h-13.6v-33.2c0-14.5-18.6-15-18.6 2v18.2h-13.5v-18.2c0-17-18.6-16.5-18.6-2v33.2h-13.6c0-35.5-1.5-43 5.4-50.9 7.3-7.9 19.6-8.5 27.6-1.2 1 .9 1.9 1.9 2.6 3l3.4 5.7 3.4-5.7c6.3-8.7 18.5-10.7 27.2-4.4 1.1.8 2.1 1.7 3 2.6 6.8 8 5.3 15.4 5.3 50.9z"/></svg>

<?xml version="1.0" encoding="utf-8"?>
<!-- Generator: Adobe Illustrator 24.2.3, SVG Export Plug-In . SVG Version: 6.00 Build 0)  -->
<svg version="1.1" id="Layer_1" xmlns="http://www.w3.org/2000/svg" xmlns:xlink="http://www.w3.org/1999/xlink" x="0px" y="0px"
	 viewBox="0 0 121.6 130.4" style="enable-background:new 0 0 121.6 130.4;" xml:space="preserve">
<style type="text/css">
	.st0{fill:#657EE4;}
</style>
<path id="Icon_awesome-mastodon" class="st0" d="M121.6,42.8c0-28.3-18.5-36.6-18.5-36.6C84.9-2.1,36.6-2,18.6,6.2
	c0,0-18.5,8.3-18.5,36.6c0,33.7-1.9,75.5,30.7,84.1c9.8,2.7,19.9,3.8,30.1,3.3c8-0.2,15.8-2,23.1-5.3l-0.5-10.7
	c-7.3,2.1-14.9,3.1-22.4,2.9c-11.8-0.4-24.1-1.3-26.1-15.7c-0.2-1.3-0.3-2.7-0.3-4c17.1,3.9,34.7,4.6,52,2c16.3-2,30.6-12,32.3-21.2
	C120.8,66.5,121.7,54.7,121.6,42.8L121.6,42.8z M99.8,79.2H86.2V46c0-14.5-18.6-15-18.6,2v18.2H54.1V48c0-17-18.6-16.5-18.6-2v33.2
	H21.9c0-35.5-1.5-43,5.4-50.9c7.3-7.9,19.6-8.5,27.6-1.2c1,0.9,1.9,1.9,2.6,3l3.4,5.7l3.4-5.7c6.3-8.7,18.5-10.7,27.2-4.4
	c1.1,0.8,2.1,1.7,3,2.6C101.3,36.3,99.8,43.7,99.8,79.2L99.8,79.2z"/>
</svg>
